icons/icn_map_ayuda.svg

<svg width="24" xmlns="http://www.w3.org/2000/svg" height="24" id="screenshot-39defeb7-7fd6-80d5-8006-98467c28a314" viewBox="0 0 24 24" xmlns:xlink="http://www.w3.org/1999/xlink" fill="none" version="1.1"><g id="shape-39defeb7-7fd6-80d5-8006-98467c28a314"><g class="frame-container-wrapper"><g class="frame-container-blur"><g class="frame-container-shadows"><g fill="none"><g class="fills" id="fills-39defeb7-7fd6-80d5-8006-98467c28a314"><rect rx="0" ry="0" x="0" y="0" width="24" height="24.000000000000455" transform="matrix(1, 0, 0, 1, 0, 0)" class="frame-background"/></g><g class="frame-children"><g id="shape-39defeb7-7fd6-80d5-8006-98468e47d3fe" height="24" version="1.1" rx="0" ry="0" style="fill: rgb(0, 0, 0);"><g id="shape-39defeb7-7fd6-80d5-8006-98468e4bdcfb" style="opacity: 1;"><g class="fills" id="fills-39defeb7-7fd6-80d5-8006-98468e4bdcfb"><path d="M8.940938949584961,2.326110601425171C8.933370590209961,2.327087163925171,8.926046371459961,2.328429937362671,8.918722152709961,2.329894781112671C8.847677230834961,2.331237554550171,8.776632308959961,2.342345952987671,8.709249496459961,2.363097906112671L2.59645676612854,4.347228527069092C2.29006028175354,4.448302745819092,2.08254075050354,4.733947277069092,2.08083176612854,5.056457042694092L2.08083176612854,20.91876220703125C2.07985520362854,21.15911865234375,2.19435715675354,21.38519287109375,2.38771653175354,21.52728271484375C2.58156418800354,21.66900634765625,2.83254075050354,21.70953369140625,3.06130051612854,21.63580322265625L8.130636215209961,19.98724365234375L8.066915512084961,20.12200927734375C7.955343246459961,20.34893798828125,7.968282699584961,20.61749267578125,8.102071762084961,20.83209228515625C8.235860824584961,21.04705810546875,8.470235824584961,21.17803955078125,8.723165512084961,21.17852783203125L21.31593894958496,21.17071533203125C21.67751121520996,21.16925048828125,21.98390769958496,20.90496826171875,22.03835105895996,20.54742431640625C22.05861473083496,20.47906494140625,22.06886863708496,20.40802001953125,22.06886863708496,20.33648681640625L21.93410301208496,3.072204351425171C21.93141746520996,2.835021734237671,21.81789207458496,2.612609624862671,21.62599754333496,2.473327398300171C21.43385887145996,2.333556890487671,21.18752098083496,2.292419195175171,20.96144676208496,2.363097906112671L15.059347152709961,4.271178722381592L9.173360824584961,2.363097906112671C9.167013168334961,2.362121343612671,9.160421371459961,2.361633062362671,9.154073715209961,2.361266851425171C9.090353012084961,2.341369390487671,9.023946762084961,2.329894781112671,8.956563949584961,2.327941656112671C8.950948715209961,2.327087163925171,8.944601058959961,2.326598882675171,8.938009262084961,2.325744390487671ZM8.190694808959961,4.105041027069092L8.190694808959961,18.39569091796875L3.57814621925354,19.89361572265625L3.57814621925354,5.603087902069092ZM9.689229965209961,4.105041027069092L14.310079574584961,5.603087902069092L14.310079574584961,7.304503917694092L9.689229965209961,16.79022216796875ZM20.44411277770996,4.105041027069092L20.54543113708496,17.19073486328125L15.807638168334961,7.483947277069092L15.807638168334961,5.603087902069092ZM15.018575668334961,9.20477294921875L20.14137840270996,19.71014404296875L9.895772933959961,19.71014404296875Z" style="display: inline; stroke-linecap: round; stroke-linejoin: round; fill: rgb(0, 0, 0); fill-opacity: 1;"/></g></g><g id="shape-39defeb7-7fd6-80d5-8006-98468e4c3ba6" style="opacity: 1;"><g class="fills" id="fills-39defeb7-7fd6-80d5-8006-98468e4c3ba6"><path d="M13.009786605834961,20.35406494140625L13.009786605834961,20.35406494140625L13.009786605834961,20.35406494140625Z" style="fill: none; fill-opacity: 1; stroke-linejoin: round; stroke-dasharray: none; display: inline; stroke-linecap: round;"/></g><g id="strokes-381e6b6b-1aa0-80bd-8007-29caddd22aa4-39defeb7-7fd6-80d5-8006-98468e4c3ba6" class="strokes" style="fill: none; fill-opacity: 1; stroke-linejoin: round; stroke-dasharray: none; display: inline; stroke-linecap: round;"><g class="stroke-shape"><path d="M13.009786605834961,20.35406494140625L13.009786605834961,20.35406494140625L13.009786605834961,20.35406494140625Z" style="fill: none; stroke-width: 0.388056; stroke: rgb(0, 0, 0); stroke-opacity: 1;"/></g></g></g><g id="shape-39defeb7-7fd6-80d5-8006-98468e4c4ddc" style="opacity: 1;"><g class="fills" id="fills-39defeb7-7fd6-80d5-8006-98468e4c4ddc"><ellipse cx="15.031661296876564" cy="18.417930524273856" rx="0.6727198858650354" ry="0.6727206274066475" transform="matrix(1, 0, 0, 1, 0, 0)" style="stroke-opacity: 1; stroke: none; stroke-width: 0.459215; stroke-linejoin: round; stroke-dasharray: none; display: inline; stroke-linecap: round; fill: rgb(0, 0, 0); fill-opacity: 1;"/></g></g><g id="shape-39defeb7-7fd6-80d5-8006-98468e4cdd37" style="opacity: 1;"><g class="fills" id="fills-39defeb7-7fd6-80d5-8006-98468e4cdd37"><path d="M14.540792465209961,17.19854736328125C14.551778793334961,17.06109619140625,14.567403793334961,16.91290283203125,14.591329574584961,16.80596923828125C14.630147933959961,16.62225341796875,14.696554183959961,16.45526123046875,14.788839340209961,16.30621337890625C14.883077621459961,16.15679931640625,15.008565902709961,15.99896240234375,15.163595199584961,15.83245849609375C15.284444808959961,15.70599365234375,15.393331527709961,15.58648681640625,15.490987777709961,15.47491455078125C15.587911605834961,15.36004638671875,15.665548324584961,15.23907470703125,15.723653793334961,15.11285400390625C15.781759262084961,14.98358154296875,15.810323715209961,14.83551025390625,15.810323715209961,14.66900634765625C15.810323715209961,14.48809814453125,15.783712387084961,14.33453369140625,15.727315902709961,14.20806884765625C15.671895980834961,14.08172607421875,15.590841293334961,13.98565673828125,15.482686996459961,13.91925048828125C15.377706527709961,13.85333251953125,15.245626449584961,13.82049560546875,15.087911605834961,13.82049560546875C14.956808090209961,13.82049560546875,14.833272933959961,13.84918212890625,14.717794418334961,13.90631103515625C14.601583480834961,13.96124267578125,14.508321762084961,14.04705810546875,14.437276840209961,14.16522216796875C14.367208480834961,14.28009033203125,14.328390121459961,14.43231201171875,14.323019027709961,14.62188720703125L13.372579574584961,14.62188720703125C13.376241683959961,14.25970458984375,13.456563949584961,13.95526123046875,13.608663558959961,13.70843505859375C13.761007308959961,13.46160888671875,13.965841293334961,13.27606201171875,14.224142074584961,13.15252685546875C14.481710433959961,13.02923583984375,14.769552230834961,12.96746826171875,15.087911605834961,12.96746826171875C15.440450668334961,12.96746826171875,15.742208480834961,13.03338623046875,15.990987777709961,13.16534423828125C16.24098777770996,13.29461669921875,16.43214988708496,13.48419189453125,16.56300926208496,13.73431396484375C16.69777488708496,13.98114013671875,16.76418113708496,14.28009033203125,16.76418113708496,14.63018798828125C16.76418113708496,14.88311767578125,16.71803855895996,15.11285400390625,16.62575340270996,15.31939697265625C16.53346824645996,15.52337646484375,16.41457176208496,15.71429443359375,16.26686668395996,15.89239501953125C16.12013816833496,16.06768798828125,15.960470199584961,16.24310302734375,15.790060043334961,16.41839599609375C15.642354965209961,16.56463623046875,15.542745590209961,16.72430419921875,15.490255355834961,16.89630126953125C15.459737777709961,16.98956298828125,15.439474105834961,17.09014892578125,15.426534652709961,17.19805908203125Z" style="font-family: roboto; stroke-linejoin: round; font-weight: 500; white-space: pre; display: inline; font-size: 8px; stroke-linecap: round; fill: rgb(0, 0, 0); fill-opacity: 1;"/></g><g id="strokes-381e6b6b-1aa0-80bd-8007-29caddd2d0d8-39defeb7-7fd6-80d5-8006-98468e4cdd37" class="strokes" style="font-family: roboto; stroke-linejoin: round; font-weight: 500; white-space: pre; display: inline; font-size: 8px; stroke-linecap: round;"><g class="stroke-shape"><path d="M14.540792465209961,17.19854736328125C14.551778793334961,17.06109619140625,14.567403793334961,16.91290283203125,14.591329574584961,16.80596923828125C14.630147933959961,16.62225341796875,14.696554183959961,16.45526123046875,14.788839340209961,16.30621337890625C14.883077621459961,16.15679931640625,15.008565902709961,15.99896240234375,15.163595199584961,15.83245849609375C15.284444808959961,15.70599365234375,15.393331527709961,15.58648681640625,15.490987777709961,15.47491455078125C15.587911605834961,15.36004638671875,15.665548324584961,15.23907470703125,15.723653793334961,15.11285400390625C15.781759262084961,14.98358154296875,15.810323715209961,14.83551025390625,15.810323715209961,14.66900634765625C15.810323715209961,14.48809814453125,15.783712387084961,14.33453369140625,15.727315902709961,14.20806884765625C15.671895980834961,14.08172607421875,15.590841293334961,13.98565673828125,15.482686996459961,13.91925048828125C15.377706527709961,13.85333251953125,15.245626449584961,13.82049560546875,15.087911605834961,13.82049560546875C14.956808090209961,13.82049560546875,14.833272933959961,13.84918212890625,14.717794418334961,13.90631103515625C14.601583480834961,13.96124267578125,14.508321762084961,14.04705810546875,14.437276840209961,14.16522216796875C14.367208480834961,14.28009033203125,14.328390121459961,14.43231201171875,14.323019027709961,14.62188720703125L13.372579574584961,14.62188720703125C13.376241683959961,14.25970458984375,13.456563949584961,13.95526123046875,13.608663558959961,13.70843505859375C13.761007308959961,13.46160888671875,13.965841293334961,13.27606201171875,14.224142074584961,13.15252685546875C14.481710433959961,13.02923583984375,14.769552230834961,12.96746826171875,15.087911605834961,12.96746826171875C15.440450668334961,12.96746826171875,15.742208480834961,13.03338623046875,15.990987777709961,13.16534423828125C16.24098777770996,13.29461669921875,16.43214988708496,13.48419189453125,16.56300926208496,13.73431396484375C16.69777488708496,13.98114013671875,16.76418113708496,14.28009033203125,16.76418113708496,14.63018798828125C16.76418113708496,14.88311767578125,16.71803855895996,15.11285400390625,16.62575340270996,15.31939697265625C16.53346824645996,15.52337646484375,16.41457176208496,15.71429443359375,16.26686668395996,15.89239501953125C16.12013816833496,16.06768798828125,15.960470199584961,16.24310302734375,15.790060043334961,16.41839599609375C15.642354965209961,16.56463623046875,15.542745590209961,16.72430419921875,15.490255355834961,16.89630126953125C15.459737777709961,16.98956298828125,15.439474105834961,17.09014892578125,15.426534652709961,17.19805908203125Z" style="fill: none; stroke-width: 0; stroke: rgb(0, 0, 0); stroke-opacity: 1;"/></g></g></g></g></g></g></g></g></g></g></svg>

<svg fill="none" viewBox="0 0 24 24"><g class="frame-container-wrapper"><g class="frame-container-blur"><g class="frame-container-shadows"><g class="fills"><rect width="24" height="24" class="frame-background" rx="0" ry="0"/></g><g fill="#000" class="frame-children"><path d="M8.941 2.3261a.3242.3242 0 0 0-.0223.0038.7631.7631 0 0 0-.2095.0332L2.5965 4.3472a.751.751 0 0 0-.5157.7093v15.8623a.7518.7518 0 0 0 .307.6085.7518.7518 0 0 0 .6735.1085l5.0693-1.6486-.0637.1348a.7332.7332 0 0 0 .6563 1.0565l12.5927-.0078a.7335.7335 0 0 0 .7225-.6233.7421.7421 0 0 0 .0305-.211L21.934 3.0723a.7497.7497 0 0 0-.3081-.5989.7496.7496 0 0 0-.6646-.1102l-5.902 1.908-5.886-1.908a.206.206 0 0 0-.0193-.0018.734.734 0 0 0-.1975-.0334c-.0057-.0008-.012-.0013-.0186-.0022Zm-.7503 1.779v14.2906l-4.6126 1.498V5.603Zm1.4985 0 4.6209 1.498v1.7014l-4.6209 9.4857Zm10.755 0 .1012 13.0856-4.7378-9.7068V5.6031Zm-5.4256 5.0997L20.1414 19.71H9.8958Z" class="fills"/><path fill="none" d="M13.0098 20.354Z" class="fills"/><g fill="none" stroke-linecap="round" stroke-linejoin="round" class="strokes"><path stroke="#000" stroke-width=".3881" d="M13.0098 20.354h0Z" class="stroke-shape"/></g><circle cx="15.0317" cy="18.4179" r=".6727" class="fills"/><path d="M14.5408 17.1985c.011-.1374.0266-.2856.0505-.3925.0388-.1837.1053-.3507.1975-.4998.0943-.1494.2198-.3072.3748-.4737.1208-.1265.2297-.246.3274-.3576a1.5981 1.5981 0 0 0 .2327-.362c.058-.1293.0866-.2774.0866-.4439 0-.1809-.0266-.3345-.083-.461-.0554-.1263-.1365-.2223-.2446-.2887-.105-.066-.237-.0988-.3948-.0988a.8241.8241 0 0 0-.3701.0858c-.1162.055-.2095.1408-.2805.259-.07.1148-.109.267-.1143.4566h-.9504c.0036-.3622.084-.6666.236-.9135.1524-.2468.3572-.4323.6155-.5559.2576-.1233.5455-.185.8638-.185.3526 0 .6543.0659.903.1978.25.1293.4412.3189.5721.569.1348.2468.2012.5458.2012.8959 0 .253-.0462.4827-.1384.6892a2.5213 2.5213 0 0 1-.359.573 9.576 9.576 0 0 1-.4767.526c-.1477.1462-.2474.3059-.2998.4779-.0306.0933-.0508.1938-.0638.3018Z" class="fills" font-family="roboto" font-size="8" font-weight="500" style="white-space:pre"/><g stroke-linecap="round" stroke-linejoin="round" class="strokes" font-family="roboto" font-size="8" font-weight="500" style="white-space:pre"><path fill="none" d="M14.5408 17.1985c.011-.1374.0266-.2856.0505-.3925.0388-.1837.1053-.3507.1975-.4998.0943-.1494.2198-.3072.3748-.4737.1208-.1265.2297-.246.3274-.3576a1.5981 1.5981 0 0 0 .2327-.362c.058-.1293.0866-.2774.0866-.4439 0-.1809-.0266-.3345-.083-.461-.0554-.1263-.1365-.2223-.2446-.2887-.105-.066-.237-.0988-.3948-.0988a.8241.8241 0 0 0-.3701.0858c-.1162.055-.2095.1408-.2805.259-.07.1148-.109.267-.1143.4566h-.9504c.0036-.3622.084-.6666.236-.9135.1524-.2468.3572-.4323.6155-.5559.2576-.1233.5455-.185.8638-.185.3526 0 .6543.0659.903.1978.25.1293.4412.3189.5721.569.1348.2468.2012.5458.2012.8959 0 .253-.0462.4827-.1384.6892a2.5213 2.5213 0 0 1-.359.573 9.576 9.576 0 0 1-.4767.526c-.1477.1462-.2474.3059-.2998.4779-.0306.0933-.0508.1938-.0638.3018Z" class="stroke-shape"/></g></g></g></g></g></svg>
